img/hotel.svg

<svg width="16" height="16" viewBox="0 0 16 16" fill="none" xmlns="http://www.w3.org/2000/svg">
<path d="M2.94775 10.0455C2.94775 6.84471 5.15732 4.25 7.88293 4.25H8.23131C10.9569 4.25 13.1665 6.84471 13.1665 10.0455C13.1665 10.3655 12.9455 10.625 12.673 10.625H3.44127C3.16871 10.625 2.94775 10.3655 2.94775 10.0455Z" fill="#256FFB"/>
<path d="M6.77979 3.36364C6.77979 2.61052 7.29968 2 7.94101 2H8.17325C8.81458 2 9.33448 2.61052 9.33448 3.36364C9.33448 3.43895 9.28249 3.5 9.21835 3.5H6.89591C6.83177 3.5 6.77979 3.43895 6.77979 3.36364Z" fill="#256FFB"/>
<path d="M2.4629 11.8296C2.56354 11.5538 2.79445 11.375 3.04993 11.375H12.9991C13.2648 11.375 13.5027 11.5682 13.5966 11.8601L13.9583 12.9851C14.116 13.4757 13.8073 14 13.3607 14H2.63936C2.18085 14 1.87171 13.4495 2.05233 12.9546L2.4629 11.8296Z" fill="#256FFB"/>
</svg>

<svg width="16" height="16" viewBox="0 0 16 16" fill="none" xmlns="http://www.w3.org/2000/svg"><path d="M2.948 10.046c0-3.201 2.21-5.796 4.935-5.796h.348c2.726 0 4.935 2.595 4.935 5.796 0 .32-.22.579-.493.579H3.441c-.272 0-.493-.26-.493-.58zM6.78 3.364C6.78 2.61 7.3 2 7.94 2h.232c.642 0 1.161.61 1.161 1.364 0 .075-.052.136-.116.136H6.896c-.064 0-.116-.061-.116-.136zM2.463 11.83c.1-.276.331-.455.587-.455H13c.265 0 .503.193.597.485l.361 1.125c.158.49-.15 1.015-.597 1.015H2.639c-.458 0-.767-.55-.587-1.045l.41-1.125z" fill="#256FFB"/></svg>
